X: 25812
T: Mason's Men
R: reel
M: 4/4
K: Dmajor
d2 cd ecde|a2 ga fdec|dBcd ecde|f2 ec d2 fe|
d2 cd ecde|a2 ga fdec|dBcd ecde|faec d2 de||
f B3 FB3|ceag fede|f B3 FB3|ABcd Bcde|
fB3 FB3|ceag fede|fB3 FB3|ABcd BABc||
d2 cd ecde|(3aba ga fdec|dBcd ecde|(3fgf ec dgfe|
d/d/d cd ecde|(3aba ga fdec|dAB/c/d ecde|faec dcde||
f ~B3 F~B3|ceag fede|f~ B3 F~B3|ABcd Bcde|
fBFB DFBd|ceag fede|~f3d BFBd|ABcd efge||

